(%)
(This file was generated with Gcode Generator)
G21 
M05 X0.0000 Y0.0000 Z2.0000 F4000.0 
(Generated from: test)
M05 
G00 X26.6000 Y71.5100 
M03 S1000 
G03 X26.3716 Y71.4258 I0.4463 J-1.5621 F4000.0 
G03 X26.1400 Y71.3000 I0.7912 J-1.7331 
G02 X25.9237 Y71.2405 I-0.2024 J0.3127 F4000.0 
G02 X25.0700 Y71.3400 I0.2043 J5.4652 
G03 X23.8408 Y71.3708 I-0.7012 J-3.4360 F4000.0 
G03 X23.1000 Y71.0400 I0.2299 J-1.5096 
G02 X22.7688 Y70.8652 I-0.5695 J0.6780 F4000.0 
G02 X22.4200 Y70.8500 I-0.2070 J0.7408 
G03 X21.5086 Y70.8177 I-0.3736 J-2.3351 F4000.0 
G03 X20.7500 Y70.4600 I0.4549 J-1.9478 
G02 X20.4214 Y70.3032 I-0.5546 J0.7394 F4000.0 
G02 X19.6000 Y70.1700 I-1.1808 J4.6825 
G03 X18.2157 Y69.8947 I0.3870 J-5.5631 F4000.0 
G03 X17.5700 Y69.4900 I0.5164 J-1.5415 
G02 X17.1256 Y69.2080 I-0.8948 J0.9190 F4000.0 
G02 X16.5300 Y69.1000 I-0.5956 J1.5882 
G03 X15.5106 Y68.8861 I0.0000 J-2.5358 F4000.0 
G03 X14.8900 Y68.3800 I0.6026 J-1.3725 
G03 X14.5507 Y67.4734 I1.4205 J-1.0485 
G03 X14.7400 Y66.5200 I1.7747 J-0.1431 
G02 X14.7953 Y66.2059 I-0.5001 J-0.2500 F4000.0 
G02 X14.6500 Y65.7400 I-1.3001 J0.1500 
G03 X14.4330 Y64.8379 I1.6844 J-0.8823 F4000.0 
G03 X14.6700 Y63.8200 I2.4124 J0.0251 
G02 X14.8653 Y63.2288 I-2.2022 J-1.0552 F4000.0 
G02 X14.9100 Y62.5800 I-2.6158 J-0.5063 
G03 X15.0258 Y61.8118 I2.0410 J-0.0850 F4000.0 
G03 X15.4600 Y61.0300 I2.5515 J0.9054 
G02 X15.7038 Y60.5892 I-1.0111 J-0.8471 F4000.0 
G02 X15.8000 Y59.9800 I-1.8814 J-0.6092 
G03 X15.9806 Y59.1765 I1.8780 J0.0000 F4000.0 
G03 X16.6000 Y58.2900 I2.9269 J1.3855 
G02 X16.9164 Y57.8440 I-1.2840 J-1.2462 F4000.0 
G02 X17.0000 Y57.4900 I-0.7080 J-0.3540 
G03 X17.0423 Y57.1018 I1.8020 J0.0000 F4000.0 
G03 X17.1500 Y56.8100 I1.1168 J0.2463 
G03 X17.6497 Y56.1459 I2.2013 J1.1362 
G03 X18.6100 Y55.4300 I3.5345 J3.7394 
G02 X18.8350 Y55.2246 I-0.3574 J-0.6173 F4000.0 
G02 X18.9000 Y55.0200 I-0.2893 J-0.2046 
G03 X19.2473 Y54.1544 I1.2525 J0.0000 F4000.0 
G03 X20.6500 Y53.1900 I3.0150 J2.8832 
G02 X21.1229 Y52.9153 I-0.8327 J-1.9776 F4000.0 
G02 X21.2500 Y52.7300 I-0.2204 J-0.2875 
G03 X21.3327 Y52.5353 I0.5918 J0.1366 F4000.0 
G03 X21.6600 Y52.1000 I3.3731 J2.1952 
G03 X22.0740 Y51.7734 I1.1872 J1.0793 
G03 X22.8600 Y51.4400 I2.0273 J3.6861 
G02 X23.1290 Y51.1156 I-0.1140 J-0.3682 F4000.0 
G02 X22.9400 Y50.7400 I-0.3812 J-0.0436 
G03 X19.3183 Y47.4439 I5.5540 J-9.7405 F4000.0 
G03 X17.3840 Y42.8292 I9.5800 J-6.7283 
G03 X17.2458 Y41.8227 I11.0782 J-2.0335 
G03 X17.2000 Y40.8200 I10.9504 J-1.0027 
G02 X16.9275 Y39.6508 I-2.6446 J0.0000 F4000.0 
G02 X16.1600 Y38.7100 I-2.4262 J1.1959 
G03 X15.6043 Y38.2290 I5.9383 J-7.4229 F4000.0 
G03 X14.9200 Y37.5500 I11.1719 J-11.9424 
G03 X12.4143 Y33.3032 I7.8733 J-7.5080 
G03 X12.0422 Y28.3912 I10.3583 J-3.2547 
G03 X12.7848 Y25.7854 I10.7921 J1.6668 
G03 X14.1600 Y23.4100 I10.3119 J4.3841 
G02 X14.6160 Y22.6333 I-3.2811 J-2.4486 F4000.0 
G02 X15.0100 Y21.5100 I-6.5275 J-2.9202 
G03 X15.3570 Y20.3202 I24.8190 J6.5926 F4000.0 
G03 X15.8400 Y18.9000 I35.8563 J11.4026 
G02 X16.3374 Y17.4549 I-26.2549 J-9.8456 F4000.0 
G02 X16.4900 Y16.8300 I-4.7392 J-1.4882 
G03 X18.4005 Y12.3264 I11.1657 J2.0796 F4000.0 
G03 X22.1133 Y8.9244 I9.8064 J6.9753 
G03 X22.4908 Y8.7128 I5.4503 J9.2817 
G03 X22.8700 Y8.5200 I4.9014 J9.1725 
G02 X23.8022 Y8.0304 I-4.4199 J-9.5471 F4000.0 
G02 X24.6300 Y7.4800 I-4.7704 J-8.0730 
G03 X27.2331 Y5.8053 I14.6375 J19.8920 F4000.0 
G03 X30.0600 Y4.4500 I12.3460 J22.1249 
G02 X30.9044 Y4.0105 I-1.7819 J-4.4546 F4000.0 
G02 X31.6500 Y3.4100 I-2.6563 J-4.0610 
G03 X35.8428 Y0.7760 I8.1420 J8.3063 F4000.0 
G03 X40.7333 Y0.1311 I3.9196 J10.8581 
G03 X44.6326 Y1.1625 I-0.9777 J11.5824 
G03 X48.0000 Y3.4900 I-5.0231 J10.8671 
G02 X48.8962 Y4.2346 I4.4785 J-4.4785 F4000.0 
G02 X49.9100 Y4.8000 I3.5560 J-5.1847 
G03 X51.8376 Y5.7668 I-9.2330 J20.8133 F4000.0 
G03 X54.0000 Y7.1000 I-15.4865 J27.5391 
G02 X55.1706 Y7.8138 I9.4029 J-14.1044 F4000.0 
G02 X55.8000 Y8.1000 I2.0936 J-3.7684 
G03 X59.9116 Y10.6617 I-3.6751 J10.4790 F4000.0 
G03 X62.7216 Y14.9074 I-8.6011 J8.7454 
G03 X63.2376 Y16.5964 I-10.3969 J4.0997 
G03 X63.4600 Y18.2500 I-9.7403 J2.1517 
G02 X63.5926 Y19.3701 I9.7716 J-0.5887 F4000.0 
G02 X63.8500 Y20.4500 I9.3405 J-1.6559 
G03 X64.1211 Y21.4143 I-37.4248 J11.0434 F4000.0 
G03 X64.3500 Y22.3200 I-32.7892 J8.7672 
G02 X64.5837 Y23.0287 I3.2696 J-0.6856 F4000.0 
G02 X64.9700 Y23.6700 I3.0558 J-1.4034 
G03 X65.8578 Y25.0057 I-8.4156 J6.5564 F4000.0 
G03 X66.5300 Y26.4500 I-9.1782 J5.1503 
G03 X66.9512 Y27.8695 I-8.9952 J3.4416 
G03 X67.2000 Y29.5700 I-12.6849 J2.7240 
G03 X66.4324 Y34.4515 I-10.6810 J0.8216 
G03 X63.5495 Y38.4837 I-9.9749 J-4.0851 
G03 X63.2345 Y38.7483 I-6.9587 J-7.9647 
G03 X62.9100 Y39.0000 I-6.6230 J-8.2038 
G02 X62.1361 Y39.9420 I1.5575 J2.0686 F4000.0 
G02 X61.7600 Y41.3800 I3.4652 J1.6744 
G03 X60.2190 Y46.5686 I-11.9796 J-0.7348 F4000.0 
G03 X56.6700 Y50.3500 I-9.5828 J-5.4378 
G02 X55.9179 Y50.9337 I2.8067 J4.3932 F4000.0 
G02 X55.9100 Y51.0600 I0.0629 J0.0673 
G02 X56.0340 Y51.1620 I0.2716 J-0.2037 
G02 X56.2000 Y51.2000 I0.1660 J-0.3439 
G03 X57.0973 Y51.3595 I0.0000 J2.6043 F4000.0 
G03 X58.0800 Y51.8900 I-1.3473 J3.6710 
G03 X58.3574 Y52.1517 I-0.7789 J1.1034 
G03 X58.5900 Y52.5300 I-1.4323 J1.1414 
G02 X58.8776 Y52.8956 I1.0322 J-0.5161 F4000.0 
G02 X59.4900 Y53.2900 I1.8254 J-2.1617 
G03 X60.5074 Y54.0060 I-1.5917 J3.3425 F4000.0 
G03 X60.9900 Y54.7800 I-1.4028 J1.4122 
G02 X61.2550 Y55.2402 I1.4012 J-0.5004 F4000.0 
G02 X61.9200 Y55.8800 I3.4313 J-2.9010 
G03 X62.7797 Y56.8474 I-2.3701 J2.9721 F4000.0 
G03 X63.0000 Y57.6200 I-1.2448 J0.7726 
G02 X63.0772 Y57.9027 I0.5561 J0.0000 F4000.0 
G02 X63.4900 Y58.4500 I2.6200 J-1.5468 
G03 X64.0841 Y59.3905 I-2.0837 J1.9740 F4000.0 
G03 X64.1500 Y60.1600 I-1.2907 J0.4982 
G02 X64.1832 Y60.4654 I0.5377 J0.0960 F4000.0 
G02 X64.5400 Y61.1000 I2.8345 J-1.1760 
G03 X65.0111 Y62.0564 I-2.4482 J1.8001 F4000.0 
G03 X65.0400 Y62.8300 I-1.5390 J0.4448 
G02 X65.0372 Y63.2471 I0.9957 J0.2153 F4000.0 
G02 X65.2300 Y63.7700 I1.7826 J-0.3603 
G03 X65.5257 Y64.9017 I-2.1559 J1.1678 F4000.0 
G03 X65.2600 Y65.8100 I-1.6047 J0.0236 
G02 X65.0984 Y66.2035 I0.8979 J0.5986 F4000.0 
G02 X65.1400 Y66.4300 I0.3104 J0.0601 
G03 X65.3838 Y67.4371 I-1.2906 J0.8455 F4000.0 
G03 X64.9200 Y68.5200 I-1.9835 J-0.2088 
G03 X64.3446 Y68.9259 I-1.0831 J-0.9246 
G03 X63.4000 Y69.1000 I-0.9446 J-2.4755 
G02 X62.8437 Y69.2056 I0.0000 J1.5176 F4000.0 
G02 X62.4100 Y69.4900 I0.4668 J1.1849 
G03 X61.7494 Y69.8969 I-1.1866 J-1.1866 F4000.0 
G03 X60.3500 Y70.1700 I-1.7764 J-5.3814 
G02 X59.4642 Y70.2892 I0.3798 J6.1721 F4000.0 
G02 X59.2500 Y70.4000 I0.0922 J0.4407 
G03 X58.7079 Y70.7084 I-0.9849 J-1.1008 F4000.0 
G03 X57.8500 Y70.8400 I-0.8579 J-2.7298 
G02 X57.1819 Y70.9188 I0.0617 J3.3959 F4000.0 
G02 X56.8500 Y71.0600 I0.2099 J0.9539 
G03 X56.0786 Y71.3727 I-1.0237 J-1.4174 F4000.0 
G03 X54.9300 Y71.3400 I-0.4809 J-3.2973 
G02 X54.1649 Y71.1862 I-10.0623 J48.0755 F4000.0 
G02 X54.1000 Y71.1800 I-0.0649 J0.3367 
G02 X54.0520 Y71.1816 I-0.0219 J0.0656 
G02 X53.5600 Y71.4000 I3.2844 J8.0619 
G03 X52.7937 Y71.5367 I-0.6480 J-1.4161 F4000.0 
G03 X51.5900 Y71.2500 I0.2988 J-3.9246 
G02 X50.9862 Y71.0700 I-1.0641 J2.4668 F4000.0 
G02 X50.6700 Y71.0900 I-0.1164 J0.6694 
G03 X49.9399 Y71.1674 I-0.5242 J-1.4622 F4000.0 
G03 X48.9500 Y70.8600 I0.4104 J-3.0692 
G02 X48.2675 Y70.5996 I-1.6501 J3.3002 F4000.0 
G02 X48.0300 Y70.6100 I-0.1024 J0.3769 
G03 X47.2077 Y70.6226 I-0.4289 J-1.1563 F4000.0 
G03 X45.9200 Y69.9000 I1.2681 J-3.7686 
G02 X45.1708 Y69.3931 I-2.8257 J3.3691 F4000.0 
G02 X44.8000 Y69.3000 I-0.3708 J0.6921 
G03 X44.0916 Y69.1014 I0.0000 J-1.3629 F4000.0 
G03 X42.9100 Y68.1500 I3.0116 J-4.9496 
G03 X41.4253 Y66.1805 I8.1613 J-7.6968 
G03 X40.2500 Y63.6700 I12.1839 J-7.2342 
G02 X39.9686 Y63.5042 I-0.2396 J0.0849 F4000.0 
G02 X39.6500 Y63.7700 I0.0674 J0.4046 
G03 X38.4968 Y66.2185 I-13.3888 J-4.8103 F4000.0 
G03 X37.0100 Y68.2200 I-10.3840 J-6.1604 
G03 X35.9222 Y69.0853 I-3.3113 J-3.0464 
G03 X35.1100 Y69.3000 I-0.8122 J-1.4288 
G02 X34.7126 Y69.3955 I0.0000 J0.8744 F4000.0 
G02 X34.1300 Y69.8000 I1.1967 J2.3456 
G03 X32.8708 Y70.5709 I-2.5954 J-2.8254 F4000.0 
G03 X31.9500 Y70.6100 I-0.5207 J-1.4014 
G02 X31.5950 Y70.5945 I-0.2105 J0.7485 F4000.0 
G02 X31.2100 Y70.7500 I0.1973 J1.0427 
G03 X30.2582 Y71.1446 I-1.5189 J-2.3184 F4000.0 
G03 X29.4400 Y71.1200 I-0.3579 J-1.7123 
G02 X28.9980 Y71.0870 I-0.3033 J1.0868 F4000.0 
G02 X28.3100 Y71.2600 I0.3554 J2.8683 
G03 X27.1916 Y71.5624 I-1.8251 J-4.5314 F4000.0 
G03 X26.6000 Y71.5100 I-0.1857 J-1.2700 
G01 X26.6000 Y71.5100 F4000.0 
M05 
G00 X27.8900 Y69.5000 
M03 S1000 
G02 X28.4627 Y69.1734 I-2.6984 J-5.3969 F4000.0 
G02 X29.1300 Y68.7000 I-5.0374 J-7.8080 
G03 X29.8218 Y68.2204 I10.2331 J14.0232 F4000.0 
G03 X29.8900 Y68.2000 I0.0682 J0.1036 
G03 X29.9603 Y68.2398 I0.0000 J0.0820 
G03 X30.1000 Y68.5500 I-1.2467 J0.7480 
G03 X30.1444 Y68.8964 I-0.8587 J0.2862 
G03 X30.0600 Y69.1500 I-0.5288 J-0.0352 
G02 X29.9570 Y69.3685 I0.7788 J0.5007 F4000.0 
G02 X29.9800 Y69.4000 I0.0230 J0.0074 
G02 X30.3723 Y69.2650 I0.0000 J-0.6375 
G02 X31.5300 Y68.1900 I-5.6897 J-7.2884 
G03 X32.0797 Y67.7334 I1.8862 J1.7115 F4000.0 
G03 X32.2600 Y67.7400 I0.0852 J0.1383 
G03 X32.3818 Y67.9165 I-0.1935 J0.2638 
G03 X32.4400 Y68.3900 I-1.5600 J0.4320 
G02 X32.5076 Y68.7714 I1.1100 J0.0000 F4000.0 
G02 X32.5900 Y68.8000 I0.0529 J-0.0194 
G02 X33.0405 Y68.4615 I-0.8244 J-1.5664 
G02 X34.4200 Y66.9000 I-17.4329 J-16.7906 
G03 X34.7500 Y66.7121 I0.4109 J0.3378 F4000.0 
G03 X34.9400 Y66.8200 I0.0268 J0.1741 
G03 X35.0775 Y67.1979 I-3.3111 J1.4190 
G03 X35.1000 Y67.3500 I-0.5037 J0.1521 
G02 X35.2106 Y67.4103 I0.0718 J0.0000 F4000.0 
G02 X35.8300 Y66.8800 I-1.6271 J-2.5273 
G02 X38.2501 Y62.6045 I-9.2485 J-8.0577 
G02 X38.1800 Y59.6300 I-4.2798 J-1.3873 
G02 X37.5132 Y58.5447 I-3.0981 J1.1560 
G02 X36.4100 Y57.7100 I-2.8674 J2.6434 
G02 X35.9966 Y57.6560 I-0.2823 J0.5517 
G02 X35.4400 Y57.9200 I0.2863 J1.3226 
G03 X33.7869 Y59.1526 I-26.0773 J-33.2485 F4000.0 
G03 X32.0800 Y60.3000 I-24.2967 J-34.3013 
G03 X29.3556 Y61.8425 I-21.4956 J-34.7890 
G03 X26.0800 Y63.4000 I-25.1956 J-48.7657 
G03 X22.3855 Y64.9088 I-37.0374 J-85.4128 
G03 X22.3000 Y64.8500 I-0.0226 J-0.0588 
G03 X22.3165 Y64.8222 I0.0317 J0.0000 
G03 X23.7300 Y64.0700 I37.1754 J68.1548 
G02 X28.0949 Y61.5779 I-33.3670 J-63.5123 F4000.0 
G02 X31.2500 Y59.4200 I-21.8226 J-35.2915 
G02 X33.6324 Y57.4986 I-26.1059 J-34.8078 
G02 X34.5400 Y56.5700 I-5.1278 J-5.9194 
G02 X34.7583 Y56.1374 I-0.8473 J-0.6990 
G02 X34.7400 Y55.7700 I-0.6141 J-0.1535 
G02 X33.6952 Y54.0325 I-4.7534 J1.6754 
G02 X31.9700 Y52.7600 I-4.1461 J3.8155 
G02 X28.7362 Y51.6918 I-5.6790 J11.7637 
G02 X26.2500 Y51.6700 I-1.3033 J6.8392 
G02 X26.0260 Y51.8034 I0.0657 J0.3652 
G02 X26.0500 Y51.9200 I0.0604 J0.0483 
G03 X26.6676 Y52.3908 I-1.0984 J2.0812 F4000.0 
G03 X26.6600 Y52.5700 I-0.0915 J0.0859 
G03 X26.5894 Y52.6124 I-0.0875 J-0.0656 
G03 X25.3800 Y52.7700 I-3.6997 J-23.6780 
G02 X23.1288 Y53.1394 I2.1411 J20.0934 F4000.0 
G02 X23.0000 Y53.3000 I0.0358 J0.1606 
G02 X23.0368 Y53.3549 I0.0594 J0.0000 
G02 X23.3400 Y53.4400 I0.5136 J-1.2474 
G03 X23.9763 Y53.7292 I-0.3017 J1.5086 F4000.0 
G03 X23.9900 Y53.9400 I-0.0857 J0.1114 
G03 X23.9363 Y53.9722 I-0.0910 J-0.0910 
G03 X23.0000 Y54.2400 I-9.0415 J-29.8370 
G02 X20.8287 Y54.9976 I5.6717 J19.7458 F4000.0 
G02 X20.7000 Y55.1900 I0.0795 J0.1924 
G02 X20.7284 Y55.2247 I0.0353 J0.0000 
G02 X21.1000 Y55.2700 I0.4835 J-2.4177 
G03 X21.4852 Y55.3254 I-0.0974 J2.0464 F4000.0 
G03 X21.7600 Y55.4300 I-0.2755 J1.1364 
G03 X21.7782 Y55.5706 I-0.0397 J0.0766 
G03 X21.0200 Y56.1000 I-2.4642 J-2.7216 
G02 X20.0352 Y56.6423 I6.3356 J12.6711 F4000.0 
G02 X19.3300 Y57.1200 I4.2025 J6.9629 
G02 X18.9924 Y57.4884 I0.7640 J1.0390 
G02 X19.0500 Y57.5800 I0.0516 J0.0314 
G03 X19.9572 Y57.6158 I0.3412 J2.8659 F4000.0 
G03 X20.1000 Y57.7900 I-0.0348 J0.1742 
G03 X20.0738 Y57.8434 I-0.0676 J0.0000 
G03 X19.4300 Y58.3100 I-7.4110 J-9.5488 
G02 X18.7907 Y58.7681 I4.6228 J7.1269 F4000.0 
G02 X18.1500 Y59.3200 I6.0844 J7.7109 
G02 X17.9602 Y59.7220 I0.4235 J0.4458 
G02 X18.1100 Y59.8800 I0.1472 J0.0105 
G03 X18.6452 Y59.8946 I0.1471 J4.4130 F4000.0 
G03 X18.7900 Y59.9400 I-0.0312 J0.3533 
G03 X18.8030 Y60.0204 I-0.0287 J0.0459 
G03 X17.9200 Y60.9900 I-10.8068 J-8.9542 
G02 X16.9486 Y61.9825 I24.2165 J24.6734 F4000.0 
G02 X16.8200 Y62.1600 I0.6274 J0.5898 
G02 X16.8644 Y62.2696 I0.0685 J0.0361 
G02 X17.4300 Y62.3600 I0.5656 J-1.7251 
G03 X17.7601 Y62.6337 I0.0036 J0.3316 F4000.0 
G03 X17.5700 Y63.1500 I-0.5375 J0.0952 
G02 X16.3451 Y64.3250 I6.2359 J7.7271 F4000.0 
G02 X16.2000 Y64.7100 I0.4384 J0.3850 
G02 X16.2383 Y64.7500 I0.0400 J0.0000 
G02 X16.9000 Y64.7400 I0.2447 J-5.7091 
G03 X17.5316 Y64.7434 I0.3003 J2.9028 F4000.0 
G03 X17.6000 Y64.8200 I-0.0088 J0.0766 
G03 X17.4731 Y65.4196 I-1.4795 J0.0000 
G03 X16.7400 Y66.7600 I-8.4049 J-3.7259 
G02 X16.4626 Y67.1863 I10.9192 J7.4094 F4000.0 
G02 X16.4032 Y67.3000 I0.7125 J0.4444 
G02 X16.4004 Y67.3075 I0.0770 J0.0330 
G02 X16.4000 Y67.3100 I0.0077 J0.0025 
G02 X16.4229 Y67.3331 I0.0231 J0.0000 
G02 X17.5200 Y67.3200 I0.2349 J-26.3105 
G03 X18.5625 Y67.3125 I0.6710 J20.7996 F4000.0 
G03 X19.2000 Y67.3500 I-0.1394 J7.8059 
G03 X19.3886 Y67.5331 I-0.0282 J0.2178 
G03 X19.2800 Y67.8500 I-0.3522 J0.0563 
G02 X19.2852 Y68.1676 I0.1506 J0.1564 F4000.0 
G02 X19.8900 Y68.4000 I0.6048 J-0.6708 
G02 X21.1440 Y68.2849 I0.0000 J-6.8868 
G02 X22.3200 Y67.9500 I-1.1823 J-6.3844 
G03 X22.4683 Y67.9473 I0.0775 J0.1860 F4000.0 
G03 X22.5600 Y68.0400 I-0.0547 J0.1459 
G03 X22.5515 Y68.4491 I-0.4946 J0.1943 
G03 X22.1800 Y68.9000 I-0.9909 J-0.4378 
G02 X22.1849 Y68.9950 I0.0293 J0.0461 F4000.0 
G02 X22.4800 Y69.0500 I0.2435 J-0.4870 
G02 X23.1170 Y68.9470 I-0.3927 J-4.4509 
G02 X24.0000 Y68.6900 I-2.0913 J-8.8299 
G03 X24.9685 Y68.5144 I1.1358 J3.5048 F4000.0 
G03 X25.1000 Y68.6400 I0.0057 J0.1256 
G03 X24.9867 Y68.9674 I-0.5295 J0.0000 
G03 X24.4000 Y69.5300 I-2.2919 J-1.8026 
G02 X24.3980 Y69.6091 I0.0290 J0.0403 F4000.0 
G02 X24.5500 Y69.6500 I0.1228 J-0.1535 
G02 X25.5902 Y69.3798 I-0.9092 J-5.6373 
G02 X26.7800 Y68.8400 I-2.8808 J-7.9311 
G03 X27.3920 Y68.5139 I8.4599 J15.1388 F4000.0 
G03 X27.4500 Y68.5000 I0.0580 J0.1142 
G03 X27.4815 Y68.5158 I0.0000 J0.0394 
G03 X27.6000 Y68.7000 I-1.2165 J0.9124 
G03 X27.6212 Y69.0008 I-0.3182 J0.1736 
G03 X27.2700 Y69.5800 I-1.7118 J-0.6419 
G02 X27.3200 Y69.6774 I0.0425 J0.0397 F4000.0 
G02 X27.8900 Y69.5000 I-0.2215 J-1.7164 
G01 X27.8900 Y69.5000 F4000.0 
M05 
G00 X52.5600 Y69.4700 
M03 S1000 
G03 X52.2766 Y68.8225 I1.1793 J-0.9019 F4000.0 
G03 X52.4000 Y68.5500 I0.2621 J-0.0456 
G03 X52.5049 Y68.5382 I0.0639 J0.0958 
G03 X53.0300 Y68.7900 I-1.2485 J3.2775 
G02 X54.0848 Y69.2779 I3.4321 J-6.0357 F4000.0 
G02 X55.3900 Y69.6500 I3.2418 J-8.8962 
G02 X55.4538 Y69.5770 I0.0112 J-0.0546 
G02 X55.2600 Y69.2800 I-0.7031 J0.2470 
G03 X54.7907 Y68.5758 I1.4228 J-1.4567 F4000.0 
G03 X54.9100 Y68.4000 I0.1193 J-0.0474 
G03 X55.0567 Y68.4205 I0.0000 J0.5339 
G03 X55.9600 Y68.7000 I-5.9789 J20.9262 
G02 X56.9585 Y68.9757 I5.2347 J-17.0129 F4000.0 
G02 X57.4700 Y69.0700 I1.0683 J-4.3600 
G02 X57.6910 Y68.9681 I0.0246 J-0.2374 
G02 X57.6700 Y68.7800 I-0.1188 J-0.0819 
G03 X57.2938 Y68.2054 I1.0068 J-1.0697 F4000.0 
G03 X57.3800 Y67.9700 I0.1843 J-0.0660 
G03 X57.4528 Y67.9533 I0.0551 J0.0735 
G03 X58.3500 Y68.1600 I-2.6858 J13.7118 
G02 X60.5753 Y68.5055 I3.0073 J-12.0294 F4000.0 
G02 X61.0400 Y68.3300 I0.0381 J-0.6022 
G02 X61.0409 Y68.2542 I-0.0513 J-0.0385 
G02 X60.6900 Y67.8400 I-2.6776 J1.9125 
G03 X60.6061 Y67.5328 I0.2347 J-0.2291 F4000.0 
G03 X60.8100 Y67.3500 I0.2357 J0.0577 
G03 X61.3180 Y67.3117 I0.5879 J4.4090 
G03 X62.4800 Y67.3200 I0.4157 J23.1439 
G02 X63.1610 Y67.3363 I1.2513 J-38.1660 F4000.0 
G02 X63.5128 Y67.3354 I0.1522 J-10.1863 
G02 X63.5982 Y67.3319 I-0.0393 J-2.0068 
G02 X63.6000 Y67.3300 I-0.0001 J-0.0019 
G02 X63.5937 Y67.3094 I-0.0370 J0.0000 
G02 X63.2500 Y66.8100 I-24.2018 J16.2897 
G03 X62.7731 Y66.0064 I4.0595 J-2.9524 F4000.0 
G03 X62.3500 Y64.9100 I7.1763 J-3.3993 
G03 X62.4182 Y64.7924 I0.0889 J-0.0270 
G03 X63.0500 Y64.7500 I0.4493 J1.9656 
G02 X63.5831 Y64.6667 I0.1004 J-1.1045 F4000.0 
G02 X63.6400 Y64.5000 I-0.0461 J-0.1088 
G02 X63.3862 Y64.1671 I-1.7415 J1.0643 
G02 X62.5600 Y63.3500 I-11.4634 J10.7656 
G03 X61.7518 Y62.5027 I9.1198 J-9.5078 F4000.0 
G03 X61.7400 Y62.4100 I0.0632 J-0.0552 
G03 X62.0747 Y62.2256 I0.3378 J0.2172 
G03 X63.0400 Y62.4000 I0.0203 J2.6458 
G02 X63.1258 Y62.2880 I0.0255 J-0.0693 F4000.0 
G02 X62.1500 Y61.1400 I-6.8827 J4.8616 
G03 X61.1059 Y60.0216 I12.8651 J-13.0571 F4000.0 
G03 X61.1200 Y59.9400 I0.0407 J-0.0350 
G03 X61.2178 Y59.9058 I0.1153 J0.1730 
G03 X61.8300 Y59.8800 I0.6122 J7.2442 
G02 X62.1357 Y59.7622 I0.0073 J-0.4368 F4000.0 
G02 X62.1400 Y59.5900 I-0.0826 J-0.0883 
G02 X61.2179 Y58.7671 I-6.1888 J6.0068 
G02 X60.1300 Y58.0400 I-5.9031 J7.6549 
G03 X59.8256 Y57.8416 I1.2504 J-2.2507 F4000.0 
G03 X59.8000 Y57.7900 I0.0391 J-0.0516 
G03 X59.9008 Y57.6645 I0.1285 J0.0000 
G03 X60.7500 Y57.5800 I0.7797 J3.5275 
G02 X60.9986 Y57.4990 I0.0080 J-0.3978 F4000.0 
G02 X61.0000 Y57.3900 I-0.0418 J-0.0550 
G02 X60.0038 Y56.6929 I-6.5335 J8.2758 
G02 X58.7800 Y56.0200 I-7.3057 J11.8384 
G03 X58.0329 Y55.6363 I4.5278 J-9.7349 F4000.0 
G03 X58.0000 Y55.5800 I0.0317 J-0.0563 
G03 X58.1212 Y55.4082 I0.1824 J0.0000 
G03 X58.8700 Y55.2700 I0.8032 J2.2541 
G02 X59.1565 Y55.2064 I0.0000 J-0.6776 F4000.0 
G02 X59.1700 Y55.1300 I-0.0200 J-0.0429 
G02 X58.8162 Y54.8917 I-0.7141 J0.6784 
G02 X56.8800 Y54.2300 I-8.2877 J21.0877 
G03 X55.9400 Y53.9274 I3.2599 J-11.7356 F4000.0 
G03 X55.9000 Y53.8700 I0.0211 J-0.0574 
G03 X56.0762 Y53.5762 I0.3331 J0.0000 
G03 X56.7800 Y53.4000 I0.7038 J1.3178 
G02 X56.9327 Y53.3584 I0.0000 J-0.3012 F4000.0 
G02 X56.9500 Y53.3000 I-0.0226 J-0.0385 
G02 X56.6902 Y53.1135 I-0.3508 J0.2143 
G02 X54.5700 Y52.7600 I-4.1082 J18.1061 
G03 X53.2921 Y52.6009 I6.1819 J-54.8640 F4000.0 
G03 X53.2500 Y52.5800 I0.0100 J-0.0730 
G03 X53.2484 Y52.3720 I0.1048 J-0.1048 
G03 X53.8900 Y51.9200 I1.5147 J1.4688 
G02 X53.9281 Y51.8020 I-0.0338 J-0.0761 F4000.0 
G02 X53.7500 Y51.6800 I-0.2179 J0.1271 
G02 X52.0705 Y51.6466 I-0.9498 J5.5204 
G02 X49.2600 Y52.2700 I2.1432 J16.3098 
G02 X46.8266 Y53.5381 I2.3478 J7.4739 
G02 X45.4700 Y55.1900 I2.9013 J3.7657 
G02 X45.1302 Y55.9371 I9.9768 J4.9884 
G02 X45.1000 Y56.0900 I0.3719 J0.1529 
G02 X45.2461 Y56.4448 I0.5040 J0.0000 
G02 X47.4500 Y58.4600 I21.6725 J-21.4896 
G02 X50.6732 Y60.8319 I21.2454 J-25.4945 
G02 X55.8158 Y63.8704 I40.1507 J-62.0821 
G02 X56.1127 Y64.0289 I26.4439 J-49.1898 
G02 X56.4000 Y64.1800 I24.3272 J-45.9133 
G03 X57.6315 Y64.8169 I-39.9778 J78.8134 F4000.0 
G03 X57.6900 Y64.8600 I-0.1133 J0.2150 
G03 X57.6522 Y64.9215 I-0.0247 J0.0272 
G03 X54.2000 Y63.5300 I34.8022 J-91.3229 
G03 X49.2106 Y61.1027 I20.3941 J-48.2619 
G03 X45.4541 Y58.6864 I16.4487 J-29.7010 
G03 X45.4231 Y58.6635 I11.8369 J-15.9844 
G03 X45.3926 Y58.6407 I11.5989 J-15.6020 
G03 X45.2573 Y58.5388 I11.4695 J-15.3649 
G03 X45.1300 Y58.4410 I10.4174 J-13.7010 
G03 X44.6672 Y58.0674 I9.1717 J-11.8320 
G03 X44.3200 Y57.7600 I5.8551 J-6.9635 
G02 X43.9824 Y57.5863 I-0.4734 J0.5049 F4000.0 
G02 X43.6700 Y57.6300 I-0.0937 J0.4683 
G02 X42.0474 Y59.1386 I2.1468 J3.9358 
G02 X41.5000 Y61.0000 I2.8907 J1.8614 
G02 X42.1046 Y63.8237 I6.8962 J0.0000 
G02 X44.1300 Y66.8600 I10.0510 J-4.5109 
G02 X44.7456 Y67.3006 I1.3650 J-1.2567 
G02 X44.9000 Y67.2000 I0.0444 J-0.1006 
G03 X45.0162 Y66.6161 I1.5254 J0.0000 F4000.0 
G03 X45.1900 Y66.5000 I0.1738 J0.0720 
G03 X45.2310 Y66.5191 I0.0000 J0.0535 
G03 X45.5000 Y66.8700 I-3.9114 J3.2771 
G02 X45.8322 Y67.2888 I3.0937 J-2.1128 F4000.0 
G02 X46.9061 Y68.4038 I23.1565 J-21.2288 
G02 X47.4165 Y68.8798 I8.4774 J-8.5777 
G02 X47.4700 Y68.9000 I0.0535 J-0.0608 
G02 X47.5134 Y68.8609 I0.0000 J-0.0437 
G02 X47.5200 Y68.4200 I-2.4707 J-0.2574 
G03 X47.5610 Y67.9750 I1.3118 J-0.1036 F4000.0 
G03 X47.7000 Y67.7500 I0.4455 J0.1198 
G03 X47.9053 Y67.6396 I0.3553 J0.4145 
G03 X47.9800 Y67.6700 I0.0180 J0.0628 
G02 X48.3809 Y68.1570 I2.8217 J-1.9147 F4000.0 
G02 X49.2400 Y68.9400 I8.2201 J-8.1554 
G02 X49.8275 Y69.2901 I1.4588 J-1.7798 
G02 X49.9000 Y69.2100 I0.0218 J-0.0532 
G03 X49.7972 Y68.7421 I0.8206 J-0.4255 F4000.0 
G03 X49.9400 Y68.3400 I0.7323 J0.0337 
G03 X50.1001 Y68.2660 I0.1473 J0.1086 
G03 X50.3700 Y68.3700 I-0.0343 J0.4911 
G02 X52.1713 Y69.6339 I10.3101 J-12.7788 F4000.0 
G02 X52.7300 Y69.8000 I0.5971 J-0.9855 
G02 X52.7499 Y69.7673 I0.0000 J-0.0224 
G02 X52.5600 Y69.4700 I-1.6947 J0.8730 
G01 X52.5600 Y69.4700 F4000.0 
M05 
G00 X41.0600 Y51.4500 
M03 S1000 
G02 X44.3338 Y50.4191 I-0.7886 J-8.2182 F4000.0 
G02 X46.8100 Y48.2000 I-3.8127 J-6.7456 
G02 X47.2903 Y47.1235 I-2.3675 J-1.7017 
G02 X47.2600 Y46.1500 I-1.9439 J-0.4267 
G02 X46.0299 Y44.5165 I-2.8565 J0.8711 
G02 X42.6400 Y43.1500 I-5.1958 J8.0015 
G02 X38.5325 Y42.9912 I-2.5613 J13.0527 
G02 X34.9500 Y44.0500 I1.2770 J10.9116 
G02 X33.5229 Y45.0129 I2.9719 J5.9438 
G02 X32.8100 Y45.9400 I2.0301 J2.2986 
G02 X32.5655 Y46.6176 I2.5924 J1.3182 
G02 X32.5300 Y47.1800 I1.7362 J0.3920 
G02 X32.7914 Y48.0337 I2.1293 J-0.1852 
G02 X33.5700 Y49.0500 I3.8410 J-2.1361 
G02 X35.3495 Y50.3850 I5.9420 J-6.0671 
G02 X37.5000 Y51.2600 I4.5338 J-8.0623 
G02 X39.1108 Y51.5481 I2.7089 J-10.4969 
G02 X40.2500 Y51.5400 I0.5323 J-5.2278 
G03 X40.4309 Y51.5135 I0.4727 J2.5998 F4000.0 
G03 X41.0600 Y51.4500 I3.4926 J31.4342 
G01 X41.0600 Y51.4500 F4000.0 
M05 
G00 X30.5200 Y49.8000 
M03 S1000 
G02 X30.9370 Y49.6372 I-0.3571 J-1.5305 F4000.0 
G02 X31.0500 Y49.5000 I-0.1220 J-0.2155 
G02 X30.7515 Y48.1929 I-1.2590 J-0.4001 
G02 X24.6039 Y42.6734 I-36.4722 J34.4394 
G02 X23.9647 Y42.1991 I-22.5048 J29.6548 
G02 X23.3761 Y41.7824 I-17.9496 J24.7330 
G02 X21.7460 Y40.7519 I-13.5446 J19.6211 
G02 X20.7200 Y40.2500 I-4.1791 J7.2437 
G02 X19.8353 Y40.3836 I-0.3299 J0.8111 
G02 X19.4500 Y41.2900 I0.6722 J0.8208 
G02 X19.6920 Y42.9115 I11.2630 J-0.8518 
G02 X20.1300 Y44.3200 I8.9200 J-2.0018 
G02 X22.8285 Y47.9816 I8.3490 J-3.3279 
G02 X27.0200 Y49.8900 I5.7927 J-7.1655 
G02 X28.8118 Y50.0260 I1.5638 J-8.7312 
G02 X30.5200 Y49.8000 I-0.2097 J-8.1532 
G01 X30.5200 Y49.8000 F4000.0 
M05 
G00 X51.7500 Y49.9000 
M03 S1000 
G02 X55.9657 Y48.1292 I-1.3160 J-9.0364 F4000.0 
G02 X58.7900 Y44.5400 I-5.5186 J-7.2483 
G02 X59.2249 Y43.2579 I-7.7370 J-3.3391 
G02 X59.5200 Y41.6400 I-12.0594 J-3.0357 
G02 X59.4703 Y40.0734 I-5.7062 J-0.6031 
G02 X59.2100 Y39.8200 I-0.3039 J0.0518 
G02 X58.2043 Y39.9973 I-0.2467 J1.5416 
G02 X54.9500 Y42.1900 I11.2078 J20.1457 
G03 X54.5495 Y42.5080 I-12.1546 J-14.8991 F4000.0 
G03 X53.5000 Y43.3100 I-78.4000 J-101.5003 
G02 X51.0971 Y45.3648 I14.8379 J19.7839 F4000.0 
G02 X48.7800 Y47.9000 I20.3462 J20.9225 
G02 X47.9500 Y49.1809 I6.1798 J4.9140 
G02 X47.9300 Y49.5400 I0.3892 J0.2017 
G02 X48.0233 Y49.6291 I0.1510 J-0.0647 
G02 X48.5700 Y49.7800 I1.1145 J-2.9720 
G03 X49.1875 Y49.9012 I-6.8315 J36.4347 F4000.0 
G03 X49.3500 Y49.9400 I-0.5252 J2.5606 
G02 X50.1794 Y50.0152 I0.7644 J-3.8221 F4000.0 
G02 X51.7500 Y49.9000 I-0.2323 J-13.9376 
G01 X51.7500 Y49.9000 F4000.0 
M05 
G00 X49.4800 Y42.3900 
M03 S1000 
G02 X53.6220 Y40.1167 I-2.0566 J-8.6574 F4000.0 
G02 X56.2976 Y35.7704 I-7.2329 J-7.4494 
G02 X56.6840 Y33.9121 I-9.2092 J-2.8841 
G02 X56.6900 Y32.1000 I-8.7464 J-0.9350 
G02 X56.0780 Y29.7684 I-8.0217 J0.8595 
G02 X54.9200 Y27.9900 I-5.7435 J2.4736 
G02 X53.5086 Y26.8811 I-4.0327 J3.6803 
G02 X51.5400 Y26.1400 I-3.6002 J6.5776 
G02 X48.0376 Y26.3802 I-1.3409 J6.1024 
G02 X44.3800 Y28.7800 I3.3563 J9.1028 
G02 X43.3396 Y30.0732 I7.3229 J6.9568 
G02 X42.4500 Y31.6300 I9.7607 J6.6099 
G02 X41.8271 Y33.3570 I8.6039 J4.0789 
G02 X41.5400 Y35.2000 I9.5245 J2.4278 
G02 X41.7728 Y37.7247 I8.3574 J0.5024 
G02 X42.6900 Y39.8200 I6.6122 J-1.6459 
G02 X44.0167 Y41.2663 I5.2553 J-3.4888 
G02 X45.7300 Y42.2400 I3.9608 J-4.9756 
G02 X47.4562 Y42.5906 I1.9465 J-5.1583 
G02 X49.4800 Y42.3900 I0.2938 J-7.3442 
G01 X49.4800 Y42.3900 F4000.0 
M05 
G00 X33.6800 Y42.0100 
M03 S1000 
G02 X35.7125 Y40.9701 I-2.3970 J-7.1909 F4000.0 
G02 X37.1100 Y39.5400 I-3.3977 J-4.7182 
G02 X37.7769 Y38.3018 I-5.5482 J-3.7868 
G02 X38.2500 Y36.7600 I-8.1725 J-3.3513 
G02 X38.2600 Y33.4709 I-8.2263 J-1.6697 
G02 X36.9700 Y30.2500 I-9.1648 J1.8020 
G02 X32.9669 Y26.5335 I-9.0195 J5.7007 
G02 X28.5871 Y25.7846 I-3.3193 J6.2314 
G02 X28.3168 Y25.8317 I0.9601 J6.3196 
G02 X28.0500 Y25.8900 I1.2186 J6.2123 
G02 X26.8411 Y26.2852 I2.0819 J8.4142 
G02 X25.9300 Y26.7600 I2.1470 J5.2317 
G02 X23.5909 Y29.4178 I3.4372 J5.3833 
G02 X22.8300 Y33.3300 I7.3197 J3.4537 
G02 X23.1054 Y35.0986 I8.9678 J-0.4904 
G02 X23.7500 Y36.8700 I9.6412 J-2.5057 
G02 X24.6696 Y38.4347 I9.3363 J-4.4347 
G02 X25.8100 Y39.7600 I7.8112 J-5.5679 
G02 X27.7555 Y41.2136 I6.8367 J-7.1216 
G02 X29.9300 Y42.1100 I4.5875 J-8.0428 
G02 X31.8421 Y42.3335 I1.7320 J-6.5284 
G02 X33.6800 Y42.0100 I-0.1692 J-6.3448 
G01 X33.6800 Y42.0100 F4000.0 
M05 
G00 X61.0900 Y37.5700 
M03 S1000 
G02 X62.9838 Y35.9045 I-4.6642 J-7.2132 F4000.0 
G02 X64.3300 Y33.7400 I-6.6994 J-5.6674 
G02 X65.0051 Y29.4223 I-7.8603 J-3.4407 
G02 X63.4700 Y25.3700 I-8.3919 J0.8623 
G02 X62.4779 Y24.1834 I-8.4208 J6.0328 
G02 X62.0900 Y23.9500 I-0.6363 J0.6184 
G02 X61.6317 Y24.0228 I-0.1570 J0.4906 
G02 X61.0500 Y24.7000 I1.1151 J1.5463 
G03 X60.9336 Y24.9121 I-2.8189 J-1.4095 F4000.0 
G03 X60.6600 Y25.3500 I-12.3160 J-7.3896 
G02 X60.0962 Y26.4890 I3.9526 J2.6657 F4000.0 
G02 X59.4600 Y28.9000 I17.3850 J5.8766 
G02 X58.8133 Y34.7425 I33.8612 J6.7052 
G02 X59.2500 Y37.3000 I6.7227 J0.1681 
G02 X59.9133 Y37.8293 I0.7856 J-0.3041 
G02 X61.0900 Y37.5700 I0.2466 J-1.6804 
G01 X61.0900 Y37.5700 F4000.0 
M05 
G00 X19.4500 Y37.3300 
M03 S1000 
G02 X20.0142 Y36.1809 I-1.6706 J-1.5333 F4000.0 
G02 X20.2700 Y32.5600 I-17.9677 J-3.0888 
G02 X20.1634 Y30.7594 I-23.9065 J0.5123 
G02 X19.9600 Y29.3700 I-14.4263 J1.4020 
G02 X19.2863 Y26.7257 I-23.4166 J4.5576 
G02 X18.6300 Y25.1700 I-8.7070 J2.7572 
G02 X17.8283 Y24.0741 I-4.5203 J2.4656 
G02 X17.2700 Y23.7500 I-0.8406 J0.8051 
G02 X16.8005 Y23.8587 I-0.1328 J0.4949 
G02 X15.6300 Y25.1800 I4.5177 J5.1812 
G02 X14.1647 Y29.4990 I7.2711 J4.8749 
G02 X15.0700 Y33.9800 I8.7778 J0.5586 
G02 X16.5426 Y36.0978 I8.0417 J-4.0209 
G02 X18.3500 Y37.4900 I5.1387 J-4.8020 
G02 X18.9543 Y37.5940 I0.4618 J-0.8757 
G02 X19.4500 Y37.3300 I-0.1196 J-0.8220 
G01 X19.4500 Y37.3300 F4000.0 
M05 
G00 X42.3600 Y26.9800 
M03 S1000 
G02 X43.8797 Y26.4063 I-2.3742 J-8.5889 F4000.0 
G02 X45.1800 Y25.6100 I-3.4305 J-7.0614 
G02 X46.4466 Y24.3951 I-4.4932 J-5.9521 
G02 X47.4500 Y22.8500 I-6.3476 J-5.2206 
G02 X47.9586 Y18.2946 I-5.9381 J-2.9690 
G02 X45.3040 Y14.1291 I-7.4862 J1.8421 
G02 X42.8415 Y12.7670 I-5.1501 J6.4035 
G02 X39.9900 Y12.2900 I-2.8367 J8.1955 
G02 X38.2757 Y12.4363 I0.0000 J10.1145 
G02 X36.8500 Y12.8300 I1.2669 J7.3670 
G02 X33.4739 Y15.2458 I2.8627 J7.5678 
G02 X31.9200 Y18.8000 I5.4471 J4.4982 
G02 X31.8803 Y20.4327 I6.8906 J0.9844 
G02 X32.2100 Y21.9000 I5.8767 J-0.5498 
G02 X32.7215 Y23.0284 I7.8041 J-2.8578 
G02 X33.5000 Y24.2600 I10.0870 J-5.5137 
G02 X35.4586 Y25.9970 I5.1723 J-3.8593 
G02 X38.5500 Y27.1600 I5.1159 J-8.9087 
G02 X40.3515 Y27.2905 I1.4440 J-7.4365 
G02 X42.3600 Y26.9800 I-0.4526 J-9.5808 
G01 X42.3600 Y26.9800 F4000.0 
M05 
G00 X59.2300 Y24.2400 
M03 S1000 
G02 X60.1276 Y23.6140 I-0.6435 J-1.8791 F4000.0 
G02 X60.8400 Y22.2600 I-3.0125 J-2.4496 
G02 X61.1960 Y20.5791 I-10.0303 J-3.0023 
G02 X61.2700 Y18.8800 I-10.1752 J-1.2945 
G02 X60.9927 Y16.8529 I-10.2598 J0.3708 
G02 X60.3500 Y15.0500 I-8.7375 J2.0988 
G02 X57.1979 Y11.3453 I-8.6289 J4.1485 
G02 X52.5007 Y9.5759 I-5.8318 J8.3622 
G02 X52.3706 Y9.5622 I-1.1797 J10.5345 
G02 X52.2400 Y9.5500 I-1.0539 J10.5910 
G02 X50.2821 Y9.9324 I-0.3067 J3.6329 
G02 X49.1100 Y11.1400 I1.1751 J2.3133 
G02 X48.7825 Y12.4675 I3.2442 J1.5045 
G02 X48.9400 Y14.5700 I8.4923 J0.4209 
G02 X49.3700 Y16.1277 I12.4580 J-2.6011 
G02 X49.9600 Y17.5200 I10.5312 J-3.6413 
G02 X50.8210 Y18.9904 I13.7016 J-7.0359 
G02 X52.0600 Y20.6900 I19.5637 J-12.9602 
G02 X53.7098 Y22.4045 I10.1748 J-8.1398 
G02 X55.4700 Y23.6400 I6.9644 J-8.0504 
G02 X57.6152 Y24.3772 I3.1850 J-5.7784 
G02 X59.2300 Y24.2400 I0.5307 J-3.3257 
G01 X59.2300 Y24.2400 F4000.0 
M05 
G00 X23.1300 Y23.0900 
M03 S1000 
G02 X24.9109 Y22.2002 I-1.9391 J-6.1081 F4000.0 
G02 X27.1700 Y20.2100 I-8.5080 J-11.9348 
G02 X28.4354 Y18.6277 I-11.5489 J-10.5326 
G02 X29.4400 Y16.9600 I-11.8324 J-8.2644 
G02 X30.4035 Y14.3986 I-10.9989 J-5.5995 
G02 X30.5600 Y12.5500 I-5.4978 J-1.3963 
G02 X30.2607 Y11.2571 I-4.7371 J0.4155 
G02 X29.7400 Y10.4200 I-2.4489 J0.9428 
G02 X28.4861 Y9.6951 I-1.7281 J1.5423 
G02 X26.2500 Y9.6900 I-1.1304 J5.4040 
G02 X24.4652 Y10.2330 I2.0255 J9.8631 
G02 X22.8500 Y11.0800 I3.6415 J8.9073 
G02 X20.5491 Y13.1688 I5.2907 J8.1396 
G02 X19.0800 Y15.8100 I7.1808 J5.7234 
G02 X18.4130 Y19.4352 I11.2240 J3.9392 
G02 X18.9200 Y21.8700 I5.4130 J0.1429 
G02 X19.5750 Y22.7720 I2.6950 J-1.2682 
G02 X20.4200 Y23.2800 I1.5959 J-1.6978 
G02 X21.4455 Y23.4098 I0.8398 J-2.5194 
G02 X23.1300 Y23.0900 I-0.5109 J-7.2878 
G01 X23.1300 Y23.0900 F4000.0 
M05 
G00 X43.3400 Y9.6600 
M03 S1000 
G02 X46.9983 Y8.3777 I-1.9462 J-11.4118 F4000.0 
G02 X47.7500 Y7.2200 I-0.7105 J-1.2842 
G02 X47.6180 Y6.6143 I-1.0159 J-0.0958 
G02 X46.6600 Y5.3300 I-5.9064 J3.4063 
G02 X43.7398 Y3.2119 I-7.0995 J6.7158 
G02 X40.3400 Y2.3400 I-3.9561 J8.3620 
G02 X36.9664 Y2.7539 I-0.6078 J9.0026 
G02 X33.8500 Y4.4300 I2.9977 J9.3088 
G02 X32.3639 Y5.8353 I7.7324 J9.6655 
G02 X32.0400 Y6.4500 I1.0637 J0.9531 
G02 X32.3562 Y7.5763 I1.1563 J0.2829 
G02 X34.6400 Y9.0400 I4.5173 J-4.5347 
G02 X36.3413 Y9.5484 I4.1123 J-10.6614 
G02 X38.3000 Y9.8300 I2.9944 J-13.8726 
G02 X41.0710 Y9.8804 I1.8703 J-26.6524 
G02 X43.3400 Y9.6600 I-0.6094 J-18.0661 
G01 X43.3400 Y9.6600 F4000.0 
M05 
G00 X0.0000 Y0.0000 Z2.0000 
(%)
